X: 30
T:What's That to Any One (#140)
M:6/8
L:1/8
S:Capt. F. O'Neill
K:G
B/2c/2|ded dBd|dge dBG|cee dBG|FAA A2 B/2c/2|
ded dBd|dge dBG|cee dBA|BGG G2:|
|:d|gag gfg|afd def|gag gfg|afd d2 e/2f/2|
gbg faf|ege def|gdB AGA|BGG G2:||

